src/Resource_Files/fluent/edit-paste.svg

<svg clip-rule="evenodd" fill-rule="evenodd" stroke-linejoin="round" stroke-miterlimit="2" viewBox="0 0 16 16" xmlns="http://www.w3.org/2000/svg"><path d="m10.5 2c.603 0 1.123.356 1.361.869l.054.131h1.585c.78 0 1.42.595 1.493 1.356l.007.144v1c0 .276-.224.5-.5.5-.245 0-.45-.177-.492-.41l-.008-.09v-1c0-.245-.177-.45-.41-.492l-.09-.008h-1.585c-.19.538-.678.935-1.266.993l-.149.007h-3c-.603 0-1.123-.356-1.361-.869l-.054-.131h-1.585c-.245 0-.45.177-.492.41l-.008.09v12c0 .245.177.45.41.492l.09.008h3c.276 0 .5.224.5.5 0 .245-.177.45-.41.492l-.09.008h-3c-.78 0-1.42-.595-1.493-1.356l-.007-.144v-12c0-.78.595-1.42 1.356-1.493l.144-.007h1.585c.19-.538.678-.935 1.266-.993l.149-.007zm5 5c.78 0 1.42.595 1.493 1.356l.007.144v8c0 .78-.595 1.42-1.356 1.493l-.144.007h-5c-.78 0-1.42-.595-1.493-1.356l-.007-.144v-8c0-.78.595-1.42 1.356-1.493l.144-.007zm0 1h-5c-.245 0-.45.177-.492.41l-.008.09v8c0 .245.177.45.41.492l.09.008h5c.245 0 .45-.177.492-.41l.008-.09v-8c0-.245-.177-.45-.41-.492zm-5-5h-3c-.276 0-.5.224-.5.5 0 .245.177.45.41.492l.09.008h3c.276 0 .5-.224.5-.5 0-.245-.177-.45-.41-.492z" fill="#1abc9c" fill-rule="nonzero" transform="translate(-2 -2)"/></svg>

<?xml version="1.0" encoding="UTF-8" standalone="no"?>
<!DOCTYPE svg PUBLIC "-//W3C//DTD SVG 1.1//EN" "http://www.w3.org/Graphics/SVG/1.1/DTD/svg11.dtd">
<svg width="100%" height="100%" viewBox="0 0 16 16" version="1.1" xmlns="http://www.w3.org/2000/svg" xmlns:xlink="http://www.w3.org/1999/xlink" xml:space="preserve" xmlns:serif="http://www.serif.com/" style="fill-rule:evenodd;clip-rule:evenodd;stroke-linejoin:round;stroke-miterlimit:2;">
    <g id="paste" transform="matrix(1,0,0,1,-2,-2)">
        <path d="M10.5,2C11.103,2 11.623,2.356 11.861,2.869L11.915,3L13.5,3C14.28,3 14.92,3.595 14.993,4.356L15,4.5L15,5.5C15,5.776 14.776,6 14.5,6C14.255,6 14.05,5.823 14.008,5.59L14,5.5L14,4.5C14,4.255 13.823,4.05 13.59,4.008L13.5,4L11.915,4C11.725,4.538 11.237,4.935 10.649,4.993L10.5,5L7.5,5C6.897,5 6.377,4.644 6.139,4.131L6.085,4L4.5,4C4.255,4 4.05,4.177 4.008,4.41L4,4.5L4,16.5C4,16.745 4.177,16.95 4.41,16.992L4.5,17L7.5,17C7.776,17 8,17.224 8,17.5C8,17.745 7.823,17.95 7.59,17.992L7.5,18L4.5,18C3.72,18 3.08,17.405 3.007,16.644L3,16.5L3,4.5C3,3.72 3.595,3.08 4.356,3.007L4.5,3L6.085,3C6.275,2.462 6.763,2.065 7.351,2.007L7.5,2L10.5,2ZM15.5,7C16.28,7 16.92,7.595 16.993,8.356L17,8.5L17,16.5C17,17.28 16.405,17.92 15.644,17.993L15.5,18L10.5,18C9.72,18 9.08,17.405 9.007,16.644L9,16.5L9,8.5C9,7.72 9.595,7.08 10.356,7.007L10.5,7L15.5,7ZM15.5,8L10.5,8C10.255,8 10.05,8.177 10.008,8.41L10,8.5L10,16.5C10,16.745 10.177,16.95 10.41,16.992L10.5,17L15.5,17C15.745,17 15.95,16.823 15.992,16.59L16,16.5L16,8.5C16,8.255 15.823,8.05 15.59,8.008L15.5,8ZM10.5,3L7.5,3C7.224,3 7,3.224 7,3.5C7,3.745 7.177,3.95 7.41,3.992L7.5,4L10.5,4C10.776,4 11,3.776 11,3.5C11,3.255 10.823,3.05 10.59,3.008L10.5,3Z" style="fill:rgb(26,188,156);fill-rule:nonzero;"/>
    </g>
</svg>
